art/bananaboard.svg

<?xml version="1.0" encoding="UTF-8" standalone="no"?>
<!-- Generator: Adobe Illustrator 13.0.2, SVG Export Plug-In . SVG Version: 6.00 Build 14948)  -->

<svg
   xmlns:dc="http://purl.org/dc/elements/1.1/"
   xmlns:cc="http://creativecommons.org/ns#"
   xmlns:rdf="http://www.w3.org/1999/02/22-rdf-syntax-ns#"
   xmlns:svg="http://www.w3.org/2000/svg"
   xmlns="http://www.w3.org/2000/svg"
   xmlns:sodipodi="http://sodipodi.sourceforge.net/DTD/sodipodi-0.dtd"
   xmlns:inkscape="http://www.inkscape.org/namespaces/inkscape"
   version="1.0"
   id="svg2"
   sodipodi:docname="bananaboard.svg"
   inkscape:version="0.92.3 (2405546, 2018-03-11)"
   sodipodi:version="0.32"
   inkscape:output_extension="org.inkscape.output.svg.inkscape"
   x="0px"
   y="0px"
   width="304.93207"
   height="481.71497"
   viewBox="0 0 304.93207 481.71497"
   enable-background="new 0 0 300 300"
   xml:space="preserve"><metadata
     id="metadata44"><rdf:RDF><cc:Work
         rdf:about=""><dc:format>image/svg+xml</dc:format><dc:type
           rdf:resource="http://purl.org/dc/dcmitype/StillImage" /><dc:title /></cc:Work></rdf:RDF></metadata><defs
     id="defs42"><inkscape:perspective
       sodipodi:type="inkscape:persp3d"
       inkscape:vp_x="0 : 150 : 1"
       inkscape:vp_y="0 : 1000 : 0"
       inkscape:vp_z="300 : 150 : 1"
       inkscape:persp3d-origin="150 : 100 : 1"
       id="perspective46" /></defs><sodipodi:namedview
     id="base"
     gridtolerance="10000"
     objecttolerance="10"
     showgrid="false"
     guidetolerance="10"
     borderopacity="1.0"
     bordercolor="#666666"
     inkscape:cy="101.91497"
     inkscape:cx="36.63933"
     inkscape:zoom="1.2987194"
     pagecolor="#ffffff"
     inkscape:document-units="px"
     inkscape:current-layer="svg2"
     inkscape:window-width="926"
     inkscape:window-height="1025"
     inkscape:window-x="123"
     inkscape:window-y="0"
     inkscape:pageopacity="0.0"
     inkscape:pageshadow="2"
     fit-margin-top="0"
     fit-margin-left="0"
     fit-margin-right="0"
     fit-margin-bottom="0"
     inkscape:window-maximized="0" /><path
     style="fill:none;stroke:#000000;stroke-width:0.56699997;stroke-linecap:round;stroke-miterlimit:4;stroke-dasharray:none"
     inkscape:connector-curvature="0"
     id="path12"
     d="m 109.22267,457.03797 c -0.023,-0.39117 -0.46509,-5.89818 -0.48831,-9.08748 -0.0116,-1.59501 -0.18778,-3.23966 -0.28309,-4.9393 -0.38126,-6.79856 -0.76971,-14.43432 -1.06885,-22.73763 -1.19655,-33.21327 -0.96412,-77.10751 6.87362,-120.82661 15.66668,-87.43563 109.10305,-224.286198 129.32072,-236.353776 20.22073,-12.073255 44.54012,-19.873417 44.54012,-19.873417 0,0 10.56376,-2.89002 13.68598,-1.770611 3.12215,1.119413 4.58305,-16.616099 -0.44476,-26.139907 -5.02591,-9.5235395 -11.29554,-10.7161995 -16.49027,-12.9256795 -5.19809,-2.21420003 -9.31923,-5.4448 -16.95453,6.92283 -8.80762,14.2682975 -46.8034,27.1357975 -46.8034,27.1357975 0,0 -13.22405,-18.076098 -51.17923,-10.59563 C 39.309065,51.594324 -13.341525,280.8109 3.2536398,379.4433 c 4.150129,24.65937 11.3912382,43.31487 19.9672052,57.44471 2.143992,3.53247 3.831049,5.84671 6.654823,9.77192 4.816699,6.69548 13.339277,15.48899 22.717542,21.31636 7.208817,5.06072 31.749932,12.94427 40.194247,12.86008 2.421237,-0.67393 12.882173,-5.72499 15.077643,-6.71404 1.69104,-4.68003 2.15765,-11.95508 1.35757,-17.08436 z"
     sodipodi:nodetypes="csssccccccccccsscccc" /></svg>

<?xml version="1.0" encoding="UTF-8" standalone="no"?>
<!-- Generator: Adobe Illustrator 13.0.2, SVG Export Plug-In . SVG Version: 6.00 Build 14948)  -->

<svg
   xmlns:dc="http://purl.org/dc/elements/1.1/"
   xmlns:cc="http://creativecommons.org/ns#"
   xmlns:rdf="http://www.w3.org/1999/02/22-rdf-syntax-ns#"
   xmlns:svg="http://www.w3.org/2000/svg"
   xmlns="http://www.w3.org/2000/svg"
   xmlns:sodipodi="http://sodipodi.sourceforge.net/DTD/sodipodi-0.dtd"
   xmlns:inkscape="http://www.inkscape.org/namespaces/inkscape"
   version="1.0"
   id="svg2"
   sodipodi:docname="WikiVoc-banana.svg"
   inkscape:version="0.92.2 (5c3e80d, 2017-08-06)"
   sodipodi:version="0.32"
   inkscape:output_extension="org.inkscape.output.svg.inkscape"
   x="0px"
   y="0px"
   width="304.93207"
   height="481.71497"
   viewBox="0 0 304.93207 481.71497"
   enable-background="new 0 0 300 300"
   xml:space="preserve"><metadata
     id="metadata44"><rdf:RDF><cc:Work
         rdf:about=""><dc:format>image/svg+xml</dc:format><dc:type
           rdf:resource="http://purl.org/dc/dcmitype/StillImage" /><dc:title></dc:title></cc:Work></rdf:RDF></metadata><defs
     id="defs42"><inkscape:perspective
       sodipodi:type="inkscape:persp3d"
       inkscape:vp_x="0 : 150 : 1"
       inkscape:vp_y="0 : 1000 : 0"
       inkscape:vp_z="300 : 150 : 1"
       inkscape:persp3d-origin="150 : 100 : 1"
       id="perspective46" /></defs><sodipodi:namedview
     id="base"
     gridtolerance="10000"
     objecttolerance="10"
     showgrid="false"
     guidetolerance="10"
     borderopacity="1.0"
     bordercolor="#666666"
     inkscape:cy="170.86076"
     inkscape:cx="149.16598"
     inkscape:zoom="1.2987194"
     pagecolor="#ffffff"
     inkscape:document-units="px"
     inkscape:current-layer="svg2"
     inkscape:window-width="926"
     inkscape:window-height="1048"
     inkscape:window-x="56"
     inkscape:window-y="0"
     inkscape:pageopacity="0.0"
     inkscape:pageshadow="2"
     fit-margin-top="0"
     fit-margin-left="0"
     fit-margin-right="0"
     fit-margin-bottom="0"
     inkscape:window-maximized="0" /><path
     style="fill:none;stroke:#000000;stroke-width:0.56699997;stroke-linecap:round;stroke-miterlimit:4;stroke-dasharray:none"
     inkscape:connector-curvature="0"
     id="path12"
     d="M 108.83768,449.04933 C 108.81472,448.65816 108.75759,448.34858 108.73436,447.95049 108.64145,446.35815 108.54658,444.71083 108.45127,443.01119 108.07001,436.21263 107.68156,428.57687 107.38242,420.27356 106.18587,387.06029 106.4183,343.16605 114.25604,299.44695 129.92272,212.01132 223.35909,75.160752 243.57676,63.093174 263.79749,51.019919 288.11688,43.219757 288.11688,43.219757 288.11688,43.219757 298.68064,40.329737 301.80286,41.449146 304.92501,42.568559 306.38591,24.833047 301.3581,15.309239 296.33219,5.7856995 290.06256,4.5930395 284.86783,2.3835595 279.66974,0.16935947 275.5486,-3.0612405 267.9133,9.3063895 259.10568,23.574687 221.1099,36.442187 221.1099,36.442187 221.1099,36.442187 207.88585,18.366089 169.93067,25.846557 39.309065,51.594324 -13.341525,280.8109 3.2536398,379.4433 7.4037688,404.10267 14.644878,422.75817 23.220845,436.88801 25.364837,440.42048 27.592258,443.67008 29.875668,446.65993 30.44652,447.4074 31.020872,448.13863 31.598294,448.85398 31.74265,449.03282 32.054962,449.50731 32.199695,449.68417 L 32.199454,480.08974 33.541158,481.43147 H 73.188405 L 74.530135,480.08974 V 453.27399 C 74.532055,448.48759 81.713635,448.48759 81.711235,453.27399 V 480.08974 L 83.052975,481.43147 H 107.5821 L 108.92383,480.08974 108.92369,449.68417 C 108.91228,449.49032 108.84916,449.24492 108.83768,449.04933 Z"
     sodipodi:nodetypes="ssssccccccccccsssccccccccccccs" /></svg>
